usr/share/icons/biglinux-icons-material/scalable/apps/dbeaver.svg

<svg width="24" height="24" viewBox="0 0 24 24" fill="none" xmlns="http://www.w3.org/2000/svg">
<path fill-rule="evenodd" clip-rule="evenodd" d="M9.59604 1.11359C9.71588 1.11486 9.83043 1.0996 9.93969 1.06779C11.3755 0.973736 12.8111 0.977551 14.2467 1.07924C15.5484 1.18066 16.8085 1.46308 18.0269 1.9265C20.0525 2.76044 21.4386 4.20689 22.185 6.26585C22.6119 7.50549 22.8639 8.78021 22.9411 10.09C23.0478 11.7347 23.0096 13.3758 22.8265 15.0133C22.6895 16.1642 22.3916 17.271 21.933 18.3336C21.0824 20.1761 19.704 21.447 17.7978 22.1463C16.2531 22.6682 14.6647 22.943 13.0325 22.9706C11.1966 23.0661 9.37913 22.9287 7.57997 22.5585C4.26839 21.8208 2.22559 19.8018 1.45158 16.5017C1.12311 15.0161 0.974199 13.5124 1.00483 11.9906C0.968176 10.3724 1.14 8.77709 1.52031 7.20471C2.33171 4.11908 4.2905 2.20701 7.39669 1.46852C8.12048 1.29157 8.8536 1.17326 9.59604 1.11359Z" fill="url(#paint0_radial_3_480)"/>
<path d="M6.09091 13.0914C8.35026 13.0914 10.1818 11.2598 10.1818 9.00045C10.1818 6.74111 8.35026 4.90954 6.09091 4.90954C3.83156 4.90954 2 6.74111 2 9.00045C2 11.2598 3.83156 13.0914 6.09091 13.0914Z" fill="#6D4C41"/>
<path d="M17.9086 13.0914C20.168 13.0914 21.9995 11.2598 21.9995 9.00045C21.9995 6.74111 20.168 4.90954 17.9086 4.90954C15.6493 4.90954 13.8177 6.74111 13.8177 9.00045C13.8177 11.2598 15.6493 13.0914 17.9086 13.0914Z" fill="#6D4C41"/>
<path fill-rule="evenodd" clip-rule="evenodd" d="M22 18.1753C21.9781 18.2282 21.9557 18.281 21.933 18.3336C21.0824 20.1761 19.704 21.447 17.7978 22.1463C16.2531 22.6682 14.6647 22.943 13.0325 22.9706C11.1966 23.0661 9.37913 22.9287 7.57997 22.5585C4.87086 21.955 3.01087 20.494 2 18.1756L2 16.4095C2 10.3845 5.975 5.50045 12 5.50045C18.025 5.50045 22 10.3845 22 16.4091V18.1753Z" fill="#A1887F"/>
<path d="M9.27273 17.6364H12V21.2727H9.27273V17.6364Z" fill="white"/>
<path d="M12 17.1818H14.7273V21.2727H12V17.1818Z" fill="#F2F2F2"/>
<path d="M9.36545 14.9095C8.11091 14.8723 7.45455 16.9214 7.45455 18.1459C7.45455 19.3709 8.47273 20.3636 9.72727 20.3636C10.8841 20.3636 11.9845 19.3782 11.9845 19.3782H12.0164C12.0164 19.3782 13.1168 20.3623 14.2727 20.3636C15.5277 20.3636 16.5455 19.3709 16.5455 18.1459C16.5455 16.9209 15.9291 15.1032 14.6745 15.0664L9.36545 14.9095Z" fill="#6D4C41" stroke="black" stroke-opacity="0.098" stroke-width="0.471364"/>
<path d="M14.6991 14.8095C14.9727 15.925 13.1827 17.1823 12.0286 17.1823C10.8745 17.1823 9.02591 15.9382 9.3 14.8095C9.51 13.9445 10.8745 14.0005 12.0286 14.0005C13.1827 14.0005 14.4914 13.9618 14.6991 14.8095Z" fill="#3E2723"/>
<path d="M7.00075 14.0073C8.25599 14.0073 9.27357 12.9897 9.27357 11.7345C9.27357 10.4792 8.25599 9.46168 7.00075 9.46168C5.74551 9.46168 4.72794 10.4792 4.72794 11.7345C4.72794 12.9897 5.74551 14.0073 7.00075 14.0073Z" fill="#FEFEFE" stroke="black" stroke-opacity="0.098" stroke-width="0.471428"/>
<path d="M6.54633 12.1862C6.04422 12.1862 5.63718 11.7792 5.63718 11.2771C5.63718 10.775 6.04422 10.368 6.54633 10.368C7.04844 10.368 7.45548 10.775 7.45548 11.2771C7.45548 11.7792 7.04844 12.1862 6.54633 12.1862Z" fill="#333333"/>
<path d="M17.003 14.0073C18.2583 14.0073 19.2758 12.9897 19.2758 11.7345C19.2758 10.4792 18.2583 9.46168 17.003 9.46168C15.7478 9.46168 14.7302 10.4792 14.7302 11.7345C14.7302 12.9897 15.7478 14.0073 17.003 14.0073Z" fill="#FEFEFE" stroke="black" stroke-opacity="0.098" stroke-width="0.471428"/>
<path d="M16.5486 12.1862C16.0465 12.1862 15.6395 11.7792 15.6395 11.2771C15.6395 10.775 16.0465 10.368 16.5486 10.368C17.0507 10.368 17.4577 10.775 17.4577 11.2771C17.4577 11.7792 17.0507 12.1862 16.5486 12.1862Z" fill="#333333"/>
<defs>
<radialGradient id="paint0_radial_3_480" cx="0" cy="0" r="1" gradientUnits="userSpaceOnUse" gradientTransform="translate(12 1) rotate(90) scale(22)">
<stop stop-color="#FAFAFA"/>
<stop offset="1" stop-color="#CCCCCC"/>
</radialGradient>
</defs>
</svg>

<svg xmlns="http://www.w3.org/2000/svg" width="24" height="24" fill="none"><path fill="url(#a)" fill-rule="evenodd" d="M9.596 1.114c.12 0 .234-.014.344-.046a31.627 31.627 0 0 1 4.307.011c1.301.102 2.561.384 3.78.848 2.025.833 3.412 2.28 4.158 4.339.427 1.24.679 2.514.756 3.824a27.94 27.94 0 0 1-.114 4.923 11.88 11.88 0 0 1-.894 3.32c-.85 1.843-2.229 3.114-4.135 3.813a15.624 15.624 0 0 1-4.765.825 21.423 21.423 0 0 1-5.453-.413c-3.312-.737-5.354-2.756-6.128-6.056a19.047 19.047 0 0 1-.447-4.511 18.491 18.491 0 0 1 .515-4.786c.812-3.086 2.77-4.998 5.877-5.736a13.953 13.953 0 0 1 2.199-.355Z" clip-rule="evenodd"/><path fill="#6D4C41" d="M6.09 13.091a4.09 4.09 0 1 0 0-8.181 4.09 4.09 0 0 0 0 8.181ZM17.909 13.091a4.09 4.09 0 1 0 0-8.181 4.09 4.09 0 0 0 0 8.181Z"/><path fill="#A1887F" fill-rule="evenodd" d="m22 18.175-.067.159c-.85 1.842-2.229 3.113-4.135 3.812a15.624 15.624 0 0 1-4.765.825 21.423 21.423 0 0 1-5.453-.413c-2.71-.603-4.57-2.064-5.58-4.382V16.41C2 10.384 5.975 5.5 12 5.5s10 4.884 10 10.91v1.765Z" clip-rule="evenodd"/><path fill="#fff" d="M9.273 17.636H12v3.637H9.273v-3.637Z"/><path fill="#F2F2F2" d="M12 17.182h2.727v4.09H12v-4.09Z"/><path fill="#6D4C41" stroke="#000" stroke-opacity=".098" stroke-width=".471" d="M9.365 14.91c-1.254-.038-1.91 2.011-1.91 3.236s1.018 2.218 2.272 2.218c1.157 0 2.258-.986 2.258-.986h.031s1.1.984 2.257.986c1.255 0 2.273-.993 2.273-2.218s-.617-3.043-1.871-3.08l-5.31-.157Z"/><path fill="#3E2723" d="M14.7 14.81c.273 1.115-1.517 2.372-2.671 2.372-1.155 0-3.003-1.244-2.729-2.372.21-.866 1.574-.81 2.729-.81 1.154 0 2.462-.038 2.67.81Z"/><path fill="#FEFEFE" stroke="#000" stroke-opacity=".098" stroke-width=".471" d="M7 14.007a2.273 2.273 0 1 0 0-4.545 2.273 2.273 0 0 0 0 4.545Z"/><path fill="#333" d="M6.546 12.186a.91.91 0 1 1 0-1.818.91.91 0 0 1 0 1.818Z"/><path fill="#FEFEFE" stroke="#000" stroke-opacity=".098" stroke-width=".471" d="M17.003 14.007a2.273 2.273 0 1 0 0-4.545 2.273 2.273 0 0 0 0 4.545Z"/><path fill="#333" d="M16.549 12.186a.91.91 0 1 1 0-1.818.91.91 0 0 1 0 1.818Z"/><defs><radialGradient id="a" cx="0" cy="0" r="1" gradientTransform="matrix(0 22 -22 0 12 1)" gradientUnits="userSpaceOnUse"><stop stop-color="#FAFAFA"/><stop offset="1" stop-color="#CCC"/></radialGradient></defs></svg>
